!!!OTL: ACH GOTT WIE WEH THUT SCHEIDEN
!!!ARE: Europa, Mitteleuropa, Deutschland
!!!SCT: E0746A
!!!YEM: Copyright 1995, estate of Helmut Schaffrath.
**kern
*ICvox
*Ivox
*M6/8
*k[f#]
*G:
{8g
=1
4a
8g
4f#
8e
=2
4.e
4d}
{8d
=3
4g
8g
8a
8g
8a
=4
2b
8r}
{8g
=5
4a
8g
4f#
8e
=6
4.e
4d}
{8d
=7
4g
8g
8a
8g
8a
=8
2b
8r}
{8b
=9
4dd
8dd
4dd
8dd
=10
4dd
8a
4a}
{8a
=11
4cc
8cc
8ee
8dd
8cc
=12
4.cc
4b}
{8b
=13
8cc
8b
8a
4g
8f#
=14
2g
8r}
==
!!!AGN: Abschieds - Lied, Liebe
!!!ONB: ESAC (Essen Associative Code) Database: ERK2
!!!AMT: compound duple
!!!AIN: vox
!!!EED: Helmut Schaffrath
!!!EEV: 1.0
*-
